static/img/TheTrumanShow03.svg

<svg id="svg" version="1.1" xmlns="http://www.w3.org/2000/svg" style="display: block;" viewBox="0 0 454 454">
    <defs>
    <style type="text/css">
        <![CDATA[path {stroke: #ff0;}]]>
    </style>
    </defs>
    <path d="M0 0 C149.82 0 299.64 0 454 0 C454 149.82 454 299.64 454 454 C304.18 454 154.36 454 0 454 C0 304.18 0 154.36 0 0 Z " transform="translate(0,0)" style="fill: #00657E;"/><path d="M0 0 C50.82 0 101.64 0 154 0 C154 24.75 154 49.5 154 75 C149.05 79.455 149.05 79.455 144 84 C125.19 102.81 106.38 121.62 87 141 C-103 141 -103 141 -133 111 C-132.01 111 -131.02 111 -130 111 C-130 104.73 -130 98.46 -130 92 C-121.42 92 -112.84 92 -104 92 C-104 86.06 -104 80.12 -104 74 C-95.42 74 -86.84 74 -78 74 C-78 67.73 -78 61.46 -78 55 C-69.42 55 -60.84 55 -52 55 C-52 49.06 -52 43.12 -52 37 C-43.42 37 -34.84 37 -26 37 C-26 30.73 -26 24.46 -26 18 C-17.42 18 -8.84 18 0 18 C0 12.06 0 6.12 0 0 Z " transform="translate(235,313)" style="fill: #00667F;"/><path d="M0 0 C43.56 0 87.12 0 132 0 C132 43.56 132 87.12 132 132 C127.59781544 128.22669895 123.48060181 124.60495287 119.41273499 120.5329895 C118.89630997 120.01741891 118.37988495 119.50184831 117.84781069 118.97065437 C116.13973389 117.26420815 114.43522614 115.55424342 112.73071289 113.84423828 C111.49838391 112.61162688 110.265834 111.37923633 109.03308105 110.14704895 C105.70284703 106.81710075 102.375696 103.48408772 99.04910588 100.15049982 C95.56622732 96.66135195 92.0804993 93.17505308 88.59507751 89.68844604 C82.00239027 83.09265601 75.41225538 76.49432195 68.82304233 69.89506137 C61.31835385 62.37917903 53.81081122 54.86615043 46.30303204 47.35335565 C0 1.0190084 0 1.0190084 0 0 Z " transform="translate(322,0)" style="fill: #000000;"/><path d="M0 0 C43.56 0 87.12 0 132 0 C128.22669895 4.40218456 124.60495287 8.51939819 120.5329895 12.58726501 C119.75963361 13.36190254 119.75963361 13.36190254 118.97065437 14.15218931 C117.26420815 15.86026611 115.55424342 17.56477386 113.84423828 19.26928711 C112.61162688 20.50161609 111.37923633 21.734166 110.14704895 22.96691895 C106.81710075 26.29715297 103.48408772 29.624304 100.15049982 32.95089412 C96.66135195 36.43377268 93.17505308 39.9195007 89.68844604 43.40492249 C83.09265601 49.99760973 76.49432195 56.58774462 69.89506137 63.17695767 C62.37917903 70.68164615 54.86615043 78.18918878 47.35335565 85.69696796 C1.0190084 132 1.0190084 132 0 132 C0 88.44 0 44.88 0 0 Z " transform="translate(0,0)" style="fill: #000000;"/><path d="M0 0 C0 43.56 0 87.12 0 132 C-43.56 132 -87.12 132 -132 132 C-128.11646656 127.46921098 -124.28868393 123.1456156 -120.07397461 118.96044922 C-119.51542282 118.4017514 -118.95687103 117.84305359 -118.38139343 117.26742554 C-116.55740705 115.4441287 -114.72991617 113.62438924 -112.90234375 111.8046875 C-111.62230334 110.52651591 -110.34248631 109.24812059 -109.06288147 107.96951294 C-105.70842004 104.61885042 -102.35096854 101.27119999 -98.99285889 97.92419434 C-95.58132141 94.52288894 -92.17261038 91.1187536 -88.76367188 87.71484375 C-83.25641872 82.21635309 -77.74748058 76.71955769 -72.23620605 71.22509766 C-69.15473863 68.15278901 -66.07628789 65.07749439 -63 62 C-62.01501058 61.01496785 -61.02999844 60.02995843 -60.04496765 59.04496765 C-59.51641678 58.51641678 -58.98786591 57.98786591 -58.44329834 57.44329834 C-1 0 -1 0 0 0 Z " transform="translate(454,322)" style="fill: #000000;"/><path d="M0 0 C7.87499799 6.74999828 7.87499799 6.74999828 11.3767395 10.25648499 C12.5667305 11.44441399 12.5667305 11.44441399 13.78076172 12.65634155 C14.62670898 13.50588409 15.47265625 14.35542664 16.34423828 15.23071289 C17.25406464 16.14039322 18.16389099 17.05007355 19.10128784 17.98731995 C21.57857995 20.46432695 24.05279125 22.94439021 26.52643442 25.42504048 C29.12477254 28.02966911 31.72598044 30.63142863 34.32687378 33.23350525 C39.24905608 38.15878758 44.16868664 43.08661044 49.08738792 48.01536888 C54.67007267 53.60922296 60.25558743 59.20024754 65.84135079 64.79102719 C75.39320036 74.35155022 84.94293536 83.9141806 94.49029541 93.47918701 C98.3251993 97.32112674 102.16067717 101.16247607 106 105 C132 131 132 131 132 132 C88.44 132 44.88 132 0 132 C0 88.44 0 44.88 0 0 Z " transform="translate(0,322)" style="fill: #000000;"/><path d="M0 0 C25.08 0 50.16 0 76 0 C76 0.33 76 0.66 76 1 C69.77900268 1.43515348 63.55750466 1.86198511 57.33544922 2.28173828 C55.22722691 2.42506533 53.11914702 2.57050593 51.01123047 2.71826172 C37.98430246 3.62971266 25.05987549 4.22292817 12 4 C12.01252808 4.63969223 12.02505615 5.27938446 12.03796387 5.9384613 C12.20266446 14.4379549 12.35538112 22.93764312 12.5 31.4375 C12.51187725 32.13515472 12.5237545 32.83280945 12.53599167 33.55160522 C13.13974816 69.37066839 13.06889499 105.17460724 13 141 C37.09 142.32 61.18 143.64 86 145 C86 142.36 86 139.72 86 137 C86.33 137 86.66 137 87 137 C87 139.97 87 142.94 87 146 C58.29 146 29.58 146 0 146 C0 97.82 0 49.64 0 0 Z " transform="translate(264,163)" style="fill: #000304;"/><path d="M0 0 C50.82 0 101.64 0 154 0 C154 24.75 154 49.5 154 75 C153.34 75.33 152.68 75.66 152 76 C152 51.25 152 26.5 152 1 C102.5 1 53 1 2 1 C2 7.27 2 13.54 2 20 C-6.91 20 -15.82 20 -25 20 C-25 25.94 -25 31.88 -25 38 C-33.58 38 -42.16 38 -51 38 C-51 44.27 -51 50.54 -51 57 C-59.58 57 -68.16 57 -77 57 C-77 62.94 -77 68.88 -77 75 C-85.58 75 -94.16 75 -103 75 C-103 80.94 -103 86.88 -103 93 C-111.58 93 -120.16 93 -129 93 C-129 99.27 -129 105.54 -129 112 C-130.32 111.67 -131.64 111.34 -133 111 C-132.01 111 -131.02 111 -130 111 C-130 104.73 -130 98.46 -130 92 C-121.42 92 -112.84 92 -104 92 C-104 86.06 -104 80.12 -104 74 C-95.42 74 -86.84 74 -78 74 C-78 67.73 -78 61.46 -78 55 C-69.42 55 -60.84 55 -52 55 C-52 49.06 -52 43.12 -52 37 C-43.42 37 -34.84 37 -26 37 C-26 30.73 -26 24.46 -26 18 C-17.42 18 -8.84 18 0 18 C0 12.06 0 6.12 0 0 Z " transform="translate(235,313)" style="fill: #76DDF6;"/><path d="M0 0 C24.75 0 49.5 0 75 0 C75 0.33 75 0.66 75 1 C68.77900268 1.43515348 62.55750466 1.86198511 56.33544922 2.28173828 C54.22722691 2.42506533 52.11914702 2.57050593 50.01123047 2.71826172 C36.98430246 3.62971266 24.05987549 4.22292817 11 4 C11 3.34 11 2.68 11 2 C7.37 2 3.74 2 0 2 C0 1.34 0 0.68 0 0 Z " transform="translate(265,163)" style="fill: #000507;"/><path d="M0 0 C0 0.66 0 1.32 0 2 C-10.47923688 5.49307896 -24.89858073 2.65511174 -35.875 2 C-37.5455517 1.90327872 -39.21612458 1.80692239 -40.88671875 1.7109375 C-44.9247348 1.47815107 -48.96243489 1.24047592 -53 1 C-53 0.67 -53 0.34 -53 0 C-41.45 0 -29.9 0 -18 0 C-9 -2 -9 -2 0 0 Z " transform="translate(334,304)" style="fill: #045E75;"/><path d="M0 0 C0.66 0.33 1.32 0.66 2 1 C2 7.27 2 13.54 2 20 C-6.91 20 -15.82 20 -25 20 C-25.33 19.34 -25.66 18.68 -26 18 C-17.42 18 -8.84 18 0 18 C0 12.06 0 6.12 0 0 Z " transform="translate(235,313)" style="fill: #62C9E2;"/><path d="M0 0 C-9.97006994 4.98503497 -24.01778925 3.11093142 -35 3 C-35 2.34 -35 1.68 -35 1 C-23.37650454 -0.05668141 -11.6714276 0 0 0 Z " transform="translate(311,164)" style="fill: #000406;"/><path d="M0 0 C0 0.33 0 0.66 0 1 C-2.97 1 -5.94 1 -9 1 C-9 1.66 -9 2.32 -9 3 C-10.98 3 -12.96 3 -15 3 C-12.37680015 -2.2463997 -4.79234325 0 0 0 Z " transform="translate(305,166)" style="fill: #056076;"/><path d="M0 0 C2.31 0 4.62 0 7 0 C7 0.33 7 0.66 7 1 C5.35 1.33 3.7 1.66 2 2 C3.65 2.33 5.3 2.66 7 3 C7 3.33 7 3.66 7 4 C4.69 4 2.38 4 0 4 C0 2.68 0 1.36 0 0 Z " transform="translate(301,167)" style="fill: #006481;"/>
</svg>

<svg id="svg" version="1.1" xmlns="http://www.w3.org/2000/svg" style="display:block" viewBox="0 0 454 454"><defs><style>path{stroke:#ff0}</style></defs><path d="M0 0h454v454H0V0Z" style="fill:#00657e"/><path d="M0 0h154v75l-10 9-57 57c-190 0-190 0-220-30h3V92h26V74h26V55h26V37h26V18H0V0Z" transform="translate(235 313)" style="fill:#00667f"/><path d="M0 0h132v132c-4.402-3.773-8.52-7.395-12.587-11.467l-1.565-1.562a3472.414 3472.414 0 0 1-5.117-5.127l-3.698-3.697c-3.33-3.33-6.657-6.663-9.984-9.997-3.483-3.489-6.969-6.975-10.454-10.462a53129.948 53129.948 0 0 1-19.772-19.793 77466.345 77466.345 0 0 0-22.52-22.542C0 1.02 0 1.02 0 0Z" transform="translate(322)" style="fill:#000"/><path d="M0 0h132c-3.773 4.402-7.395 8.52-11.467 12.587l-1.562 1.565a3472.414 3472.414 0 0 1-5.127 5.117l-3.697 3.698c-3.33 3.33-6.663 6.657-9.997 9.984-3.489 3.483-6.975 6.969-10.462 10.454a53129.948 53129.948 0 0 1-19.793 19.772 77466.345 77466.345 0 0 0-22.542 22.52C1.02 132 1.02 132 0 132V0Z" style="fill:#000"/><path d="M0 0v132h-132c3.884-4.53 7.711-8.854 11.926-13.04l1.693-1.693c1.824-1.823 3.651-3.643 5.479-5.462l3.84-3.835c3.354-3.351 6.711-6.699 10.07-10.046 3.41-3.401 6.82-6.805 10.228-10.21 5.508-5.498 11.017-10.994 16.528-16.489a7750.113 7750.113 0 0 0 12.191-12.18l1.602-1.602C-1 0-1 0 0 0Z" transform="translate(454 322)" style="fill:#000"/><path d="M0 0c7.875 6.75 7.875 6.75 11.377 10.256l2.404 2.4 2.563 2.575 2.757 2.756c2.478 2.477 4.952 4.957 7.425 7.438 2.599 2.605 5.2 5.206 7.8 7.809 4.923 4.925 9.843 9.853 14.761 14.781C54.67 53.61 60.256 59.2 65.841 64.791c9.552 9.56 19.102 19.123 28.65 28.688 3.834 3.842 7.67 7.683 11.509 11.521 26 26 26 26 26 27H0V0Z" transform="translate(0 322)" style="fill:#000"/><path d="M0 0h76v1c-6.221.435-12.442.862-18.665 1.282-2.108.143-4.216.289-6.324.436C37.984 3.63 25.06 4.223 12 4l.038 1.938c.165 8.5.317 17 .462 25.5l.036 2.114C13.14 69.37 13.069 105.175 13 141l73 4v-8h1v9H0V0Z" transform="translate(264 163)" style="fill:#000304"/><path d="M0 0h154v75l-2 1V1H2v19h-27v18h-26v19h-26v18h-26v18h-26v19l-4-1h3V92h26V74h26V55h26V37h26V18H0V0Z" transform="translate(235 313)" style="fill:#76ddf6"/><path d="M0 0h75v1c-6.221.435-12.442.862-18.665 1.282-2.108.143-4.216.289-6.324.436C36.984 3.63 24.06 4.223 11 4V2H0V0Z" transform="translate(265 163)" style="fill:#000507"/><path d="M0 0v2c-10.48 3.493-24.899.655-35.875 0l-5.012-.29C-44.925 1.479-48.962 1.24-53 1V0h35c9-2 9-2 18 0Z" transform="translate(334 304)" style="fill:#045e75"/><path d="m0 0 2 1v19h-27l-1-2H0V0Z" transform="translate(235 313)" style="fill:#62c9e2"/><path d="M0 0c-9.97 4.985-24.018 3.11-35 3V1C-23.377-.057-11.671 0 0 0Z" transform="translate(311 164)" style="fill:#000406"/><path d="M0 0v1h-9v2h-6c2.623-5.246 10.208-3 15-3Z" transform="translate(305 166)" style="fill:#056076"/><path d="M0 0h7v1L2 2l5 1v1H0V0Z" transform="translate(301 167)" style="fill:#006481"/></svg>
